dist/img/about/Frame-1.svg

<svg width="76" height="76" viewBox="0 0 76 76" fill="none" xmlns="http://www.w3.org/2000/svg">
<g clip-path="url(#clip0_697_14067)">
<path d="M23.3208 23.0698H18.5218C17.843 23.0698 17.192 23.3393 16.712 23.819C16.2321 24.2986 15.9624 24.9492 15.9624 25.6276L15.9752 39.604L17.5105 39.384L18.2781 35.3877L20.773 34.8459L20.7613 25.628C20.7613 25.2921 20.8274 24.9595 20.956 24.6491C21.0846 24.3387 21.2731 24.0567 21.5108 23.8191C21.7485 23.5816 22.0307 23.3931 22.3412 23.2646C22.6518 23.136 22.9846 23.0698 23.3208 23.0698Z" fill="#D4E1F4"/>
<path d="M61.0964 20.275H61.0977C61.7339 20.276 62.3445 20.0247 62.7956 19.5762C63.2468 19.1277 63.5018 18.5186 63.5046 17.8825C63.5056 17.567 63.4436 17.2545 63.3222 16.9632C63.2009 16.672 63.0227 16.4079 62.798 16.1864C62.5748 15.9639 62.3098 15.7875 62.0183 15.6675C61.7268 15.5474 61.4144 15.486 61.0992 15.4868H61.0977C60.4616 15.4859 59.851 15.7372 59.3998 16.1857C58.9487 16.6341 58.6938 17.2432 58.6909 17.8793C58.6899 18.1948 58.7519 18.5073 58.8733 18.7986C58.9946 19.0898 59.1728 19.3539 59.3975 19.5754C59.6207 19.798 59.8857 19.9744 60.1772 20.0944C60.4688 20.2144 60.7811 20.2758 61.0964 20.275ZM61.0977 17.2681C61.1803 17.2677 61.2621 17.2836 61.3385 17.3149C61.415 17.3462 61.4844 17.3923 61.543 17.4505C61.6002 17.5066 61.6456 17.5736 61.6766 17.6476C61.7075 17.7215 61.7235 17.8008 61.7234 17.881C61.7214 18.0451 61.6544 18.2017 61.5371 18.3165C61.4198 18.4313 61.2618 18.4949 61.0977 18.4934C61.0151 18.4938 60.9333 18.4779 60.8568 18.4466C60.7804 18.4153 60.7109 18.3692 60.6524 18.311C60.5952 18.2548 60.5499 18.1878 60.5189 18.1139C60.488 18.04 60.4721 17.9607 60.4722 17.8805C60.4741 17.7164 60.541 17.5597 60.6582 17.4448C60.7755 17.3299 60.9335 17.2663 61.0977 17.2678V17.2681Z" fill="#087BA8"/>
<path d="M62.0971 23.4893C61.2926 23.488 60.5204 23.8056 59.9498 24.3727C59.3791 24.9397 59.0566 25.7098 59.0527 26.5143C59.0515 26.913 59.1299 27.308 59.2833 27.676C59.4367 28.0441 59.6619 28.3778 59.9459 28.6577C60.2285 28.9393 60.5638 29.1625 60.9327 29.3143C61.3016 29.4662 61.6968 29.5439 62.0957 29.5428H62.0978C62.4964 29.5441 62.8914 29.4668 63.2601 29.3154C63.6289 29.164 63.9642 28.9414 64.2469 28.6604C64.5311 28.3808 64.7568 28.0473 64.9106 27.6794C65.0644 27.3116 65.1433 26.9167 65.1427 26.518C65.1397 25.7132 64.8176 24.9425 64.2472 24.3749C63.6767 23.8072 62.9045 23.4889 62.0997 23.4899L62.0971 23.4893ZM63.3608 26.5174C63.361 26.6808 63.3285 26.8427 63.2653 26.9934C63.2021 27.1441 63.1095 27.2808 62.9929 27.3952C62.875 27.5123 62.7352 27.6049 62.5816 27.6679C62.4279 27.7308 62.2633 27.7629 62.0972 27.7622H62.0957C61.9295 27.7628 61.7648 27.7306 61.611 27.6674C61.4573 27.6043 61.3174 27.5114 61.1996 27.3942C61.0831 27.2796 60.9907 27.1429 60.9277 26.9921C60.8647 26.8413 60.8325 26.6795 60.8328 26.516C60.8358 26.1835 60.9705 25.8658 61.2073 25.6324C61.4442 25.3991 61.7639 25.2691 62.0965 25.2711C62.4292 25.2689 62.7493 25.3989 62.9863 25.6324C63.2234 25.866 63.3581 26.184 63.3608 26.5168V26.5174Z" fill="#087BA8"/>
<path d="M67.6963 0H55.7919C54.9258 0.000973155 54.0956 0.345203 53.4832 0.95717C52.8708 1.56914 52.5264 2.39886 52.5254 3.26431C52.525 3.9936 52.7694 4.70194 53.2195 5.27599C53.6696 5.85004 54.2994 6.25661 55.008 6.43063V28.6391L56.9276 28.6375V13.4005H61.3106C61.5652 13.4005 61.8093 13.2995 61.9893 13.1196C62.1693 12.9397 62.2704 12.6958 62.2704 12.4414C62.2704 12.187 62.1693 11.943 61.9893 11.7632C61.8093 11.5833 61.5652 11.4822 61.3106 11.4822H56.9276V6.52863H66.5589V11.4822H65.3432C65.0886 11.4822 64.8445 11.5833 64.6645 11.7632C64.4845 11.943 64.3834 12.187 64.3834 12.4414C64.3834 12.6958 64.4845 12.9397 64.6645 13.1196C64.8445 13.2995 65.0886 13.4005 65.3432 13.4005H66.5589V28.6391L68.4785 28.6375V6.42999C69.1866 6.25498 69.8157 5.84834 70.2659 5.27479C70.716 4.70124 70.9613 3.99372 70.9627 3.26479C70.9618 2.39932 70.6174 1.56954 70.005 0.957556C69.3926 0.345571 68.5623 0.000888689 67.6963 0ZM67.6963 4.61032H55.7919C55.4346 4.61032 55.0921 4.46851 54.8395 4.21608C54.5869 3.96366 54.445 3.6213 54.445 3.26431C54.445 2.90733 54.5869 2.56497 54.8395 2.31254C55.0921 2.06011 55.4346 1.9183 55.7919 1.9183H67.6963C68.0532 1.91923 68.3952 2.06134 68.6476 2.31357C68.9 2.56579 69.0422 2.90761 69.0432 3.26431C69.0428 3.62118 68.9007 3.96332 68.6482 4.21566C68.3957 4.46801 68.0534 4.60994 67.6963 4.61032Z" fill="#087BA8"/>
<path d="M46.044 16.9614C42.7131 16.9614 40.4293 18.3918 39.0643 21.3342C38.5071 22.5362 37.7035 23.6078 36.7056 24.4797C34.9152 26.0498 32.6152 26.9166 30.2331 26.919H29.139V25.6274C29.1379 24.695 28.7668 23.801 28.1071 23.1417C27.4473 22.4824 26.5528 22.1115 25.6198 22.1105H18.5221C17.5891 22.1115 16.6946 22.4824 16.0349 23.1417C15.3751 23.801 15.004 24.695 15.0029 25.6274V40.4167H16.9225V25.6274C16.923 25.2035 17.0917 24.7972 17.3916 24.4976C17.6915 24.1979 18.0981 24.0293 18.5221 24.0288H25.6198C26.0439 24.0292 26.4505 24.1978 26.7504 24.4975C27.0503 24.7972 27.219 25.2035 27.2194 25.6274V40.9146C27.2194 41.169 27.3205 41.413 27.5005 41.5929C27.6805 41.7727 27.9247 41.8738 28.1792 41.8738C28.4338 41.8738 28.6779 41.7727 28.8579 41.5929C29.0379 41.413 29.139 41.169 29.139 40.9146V28.8373H30.2331C33.0812 28.835 35.8313 27.7987 37.9719 25.9213C39.1707 24.8735 40.1359 23.5858 40.8052 22.1416C41.51 20.623 42.7424 18.8805 46.0436 18.8805H55.1439V16.9622L46.044 16.9614Z" fill="#00415D"/>
<path d="M75.7033 40.8539C75.7033 40.0288 75.51 39.2152 75.1389 38.4781C74.7677 37.7411 74.2291 37.1011 73.5662 36.6093C74.4296 36.02 75.0814 35.1698 75.4263 34.1834C75.7711 33.197 75.7908 32.1261 75.4825 31.1277C75.1742 30.1292 74.5541 29.2557 73.713 28.635C72.8719 28.0143 71.854 27.679 70.8084 27.6784H55.6133C55.0496 27.679 54.5055 27.4713 54.0857 27.0952C53.6659 26.7191 53.4001 26.2012 53.3393 25.6411C53.3266 25.5151 53.2891 25.3928 53.2288 25.2813C53.1686 25.1698 53.0869 25.0714 52.9884 24.9916C52.8898 24.9119 52.7765 24.8524 52.6549 24.8167C52.5332 24.781 52.4057 24.7697 52.2797 24.7835C52.1537 24.7974 52.0316 24.836 51.9206 24.8972C51.8096 24.9584 51.7119 25.041 51.633 25.1401C51.5541 25.2393 51.4956 25.3531 51.461 25.475C51.4264 25.5969 51.4163 25.7244 51.4312 25.8502C51.543 26.8803 52.0319 27.8327 52.8039 28.5243C53.5759 29.2159 54.5765 29.5978 55.6133 29.5967H70.8084C71.5975 29.5967 72.3543 29.9099 72.9123 30.4675C73.4702 31.0252 73.7837 31.7814 73.7837 32.57C73.7837 33.3586 73.4702 34.1149 72.9123 34.6725C72.3543 35.2301 71.5975 35.5434 70.8084 35.5434L64.6145 35.5626C64.36 35.5626 64.1159 35.6636 63.9359 35.8435C63.7559 36.0234 63.6548 36.2674 63.6548 36.5217C63.6548 36.7761 63.7559 37.0201 63.9359 37.2C64.1159 37.3798 64.36 37.4809 64.6145 37.4809H70.4069C71.3022 37.4809 72.1609 37.8363 72.7941 38.4691C73.4272 39.1018 73.7829 39.9599 73.7829 40.8547C73.7829 41.7495 73.4272 42.6076 72.7941 43.2404C72.1609 43.8731 71.3022 44.2285 70.4069 44.2285H64.6145C64.36 44.2285 64.1159 44.3296 63.9359 44.5095C63.7559 44.6893 63.6548 44.9333 63.6548 45.1877C63.6548 45.4421 63.7559 45.686 63.9359 45.8659C64.1159 46.0458 64.36 46.1468 64.6145 46.1468H70.5364C70.9688 46.1372 71.3988 46.2141 71.8011 46.3728C72.2033 46.5315 72.5698 46.769 72.879 47.0712C73.1882 47.3734 73.4339 47.7343 73.6017 48.1327C73.7694 48.5311 73.8558 48.9589 73.8558 49.3912C73.8558 49.8234 73.7694 50.2512 73.6017 50.6496C73.4339 51.048 73.1882 51.4089 72.879 51.7111C72.5698 52.0134 72.2033 52.2508 71.8011 52.4095C71.3988 52.5683 70.9688 52.6451 70.5364 52.6355H61.9975C61.743 52.6355 61.4988 52.7365 61.3189 52.9164C61.1389 53.0963 61.0377 53.3403 61.0377 53.5946C61.0377 53.849 61.1389 54.093 61.3189 54.2729C61.4988 54.4527 61.743 54.5538 61.9975 54.5538H68.6185C69.4744 54.5538 70.2953 54.8936 70.9005 55.4984C71.5057 56.1033 71.8457 56.9236 71.8457 57.7789C71.8457 58.6343 71.5057 59.4546 70.9005 60.0595C70.2953 60.6643 69.4744 61.0041 68.6185 61.0041H56.3636C54.4294 61.0041 52.1903 60.9761 50.092 60.642C47.9133 60.2953 46.0886 59.652 44.5137 58.6758C41.244 56.6542 40.623 56.8271 40.623 56.8271L40.4604 58.7386C41.023 58.7386 40.4889 58.4433 43.5011 60.3058C45.2969 61.4196 47.3539 62.1495 49.7895 62.537C52.026 62.8933 54.3554 62.923 56.3631 62.923H68.618C69.9827 62.9215 71.2911 62.379 72.2562 61.4146C73.2212 60.4502 73.7641 59.1426 73.7656 57.7788C73.7694 56.4564 73.2589 55.1844 72.3419 54.231C73.2253 53.9021 74.0018 53.3379 74.5872 52.5994C75.1725 51.861 75.5444 50.9765 75.6626 50.0418C75.7808 49.1072 75.6408 48.158 75.2577 47.2972C74.8745 46.4365 74.263 45.6969 73.4892 45.1587C73.725 44.9898 73.9467 44.802 74.1521 44.5972C74.6456 44.1068 75.0368 43.5234 75.303 42.8809C75.5693 42.2383 75.7053 41.5494 75.7033 40.8539Z" fill="#00415D"/>
<path d="M41.76 25.596C41.6637 25.5148 41.5523 25.4534 41.4321 25.4152C41.312 25.377 41.1856 25.3629 41.06 25.3736C40.9344 25.3842 40.8121 25.4195 40.7002 25.4774C40.5882 25.5353 40.4888 25.6147 40.4075 25.711C38.8117 27.6012 36.72 29.0093 34.3674 29.777C34.2476 29.8161 34.1367 29.8785 34.041 29.9605C33.9454 30.0425 33.8668 30.1426 33.8098 30.2549C33.7528 30.3673 33.7185 30.4898 33.7089 30.6154C33.6992 30.741 33.7144 30.8672 33.7536 30.9869C33.7928 31.1067 33.8553 31.2175 33.9373 31.3131C34.0194 31.4087 34.1195 31.4873 34.2319 31.5442C34.3443 31.6012 34.4669 31.6355 34.5926 31.6451C34.7183 31.6547 34.8446 31.6395 34.9644 31.6003C37.6559 30.722 40.049 29.111 41.8749 26.9484C41.9563 26.8521 42.0179 26.7407 42.0561 26.6206C42.0944 26.5005 42.1086 26.374 42.098 26.2484C42.0873 26.1228 42.052 26.0006 41.994 25.8886C41.936 25.7767 41.8565 25.6773 41.76 25.596Z" fill="#00415D"/>
<path d="M42.7336 24.9593C42.9064 24.9594 43.076 24.9129 43.2246 24.8247C43.3731 24.7365 43.4951 24.6099 43.5776 24.4582C43.7263 24.185 43.8679 23.9034 43.9986 23.6216C44.0541 23.507 44.0862 23.3825 44.0931 23.2554C44.0999 23.1282 44.0814 23.001 44.0385 22.8811C43.9957 22.7612 43.9293 22.651 43.8434 22.557C43.7575 22.463 43.6537 22.387 43.5381 22.3335C43.4225 22.2799 43.2974 22.25 43.17 22.2453C43.0427 22.2406 42.9157 22.2613 42.7965 22.3061C42.6773 22.351 42.5681 22.4191 42.4755 22.5066C42.3829 22.594 42.3087 22.699 42.2571 22.8154C42.1435 23.0602 42.0205 23.3048 41.8911 23.5423C41.8116 23.6884 41.7714 23.8526 41.7746 24.0188C41.7777 24.185 41.8241 24.3475 41.909 24.4905C41.994 24.6334 42.1146 24.7518 42.2592 24.8341C42.4038 24.9164 42.5672 24.9597 42.7336 24.9598V24.9593Z" fill="#00415D"/>
<path d="M1.30012 59.1039L4.8532 59.4477C5.24679 60.9368 5.84585 62.3648 6.6325 63.6893L4.36299 66.4263C4.02305 66.8361 4.05073 67.4365 4.42678 67.8132L8.51513 71.903C8.89135 72.2792 9.49247 72.3074 9.90205 71.9681L12.6451 69.6966C13.9689 70.4817 15.3942 71.0835 16.8806 71.4851L17.2245 75.0503C17.2756 75.5788 17.7196 75.9826 18.2502 75.9832H24.048C24.5793 75.9832 25.024 75.5795 25.0751 75.0503L25.4189 71.4858C26.9087 71.0902 28.336 70.4898 29.6605 69.7012L32.3975 71.9675C32.8073 72.3074 33.4084 72.279 33.7844 71.9023L37.8742 67.8132C38.2504 67.4365 38.2786 66.8352 37.9387 66.4256L35.6671 63.6826C36.4529 62.3581 37.0554 60.9328 37.4563 59.4464L40.9355 59.1032C41.4567 59.0481 41.8463 58.6001 41.8294 58.0768V52.279C41.8463 51.7544 41.4553 51.3065 40.9334 51.252L37.3871 50.9081C36.9948 49.419 36.397 47.991 35.6112 46.6665L37.8821 43.9295C38.2206 43.5225 38.1957 42.9246 37.8236 42.5465L33.7875 38.4575C33.412 38.0773 32.8076 38.047 32.3958 38.3877L29.6528 40.6592C28.329 39.8734 26.9044 39.2716 25.4179 38.87L25.074 35.3048C25.023 34.7763 24.5783 34.3726 24.0477 34.3726H18.2498C17.7185 34.3726 17.2739 34.7763 17.2228 35.3055L16.8789 38.87C15.3899 39.2656 13.9619 39.8661 12.638 40.6546L9.90102 38.3884C9.49058 38.0484 8.88946 38.0768 8.51341 38.4535L4.42437 42.5426C4.04764 42.9193 4.01944 43.5206 4.3592 43.9302L6.63078 46.6732C5.84499 47.997 5.24318 49.4223 4.84151 50.9088L1.29909 51.2526C0.775169 51.3058 0.379521 51.7523 0.390354 52.279V58.0768C0.380037 58.6035 0.775512 59.0502 1.30012 59.1039ZM2.45405 53.2161L5.79426 52.8916C6.23823 52.848 6.60224 52.5209 6.69234 52.0837C7.08128 50.3259 7.78505 48.6521 8.77047 47.1449C9.0136 46.7668 8.98334 46.2738 8.69516 45.9278L6.54928 43.3385L9.30987 40.5772L11.8992 42.7219C12.2498 43.0121 12.7502 43.0383 13.129 42.7857C14.6281 41.7936 16.2979 41.0898 18.0543 40.7096C18.493 40.6142 18.82 40.2469 18.863 39.8002L19.1871 36.4359H23.1109L23.4347 39.7995C23.4784 40.2462 23.8054 40.6142 24.244 40.7089C26.0025 41.0998 27.6756 41.8065 29.1828 42.7931C29.5609 43.0376 30.0532 43.008 30.3999 42.7212L32.9844 40.58L35.7027 43.3325L33.554 45.9271C33.2638 46.2784 33.2377 46.7781 33.4902 47.1576C34.4824 48.6561 35.1861 50.3265 35.5663 52.083C35.6449 52.5163 36.0008 52.8461 36.4395 52.8909L39.7663 53.2161V57.1406L36.4898 57.465C36.0479 57.5094 35.6865 57.8371 35.5998 58.273C35.2116 60.0308 34.509 61.7038 33.5245 63.2118C33.282 63.5906 33.3135 64.0829 33.6017 64.4288L35.7482 67.0182L32.9883 69.7794L30.399 67.6348C30.0484 67.3445 29.548 67.3184 29.1693 67.571C27.6707 68.5631 26.0003 69.2669 24.2439 69.647C23.8052 69.7425 23.4782 70.1098 23.4352 70.5565L23.1111 73.9201H19.1873L18.8635 70.5565C18.8205 70.1098 18.4935 69.7425 18.0549 69.647C16.2964 69.2562 14.6233 68.5495 13.1167 67.5629C12.7386 67.3184 12.2457 67.348 11.899 67.6348L9.30969 69.7794L6.5479 67.0182L8.69258 64.4288C8.98283 64.0776 9.00896 63.5779 8.75637 63.1984C7.76425 61.6999 7.06047 60.0294 6.6803 58.273C6.5957 57.8378 6.23565 57.5094 5.79444 57.465L2.45422 57.1399V53.2161H2.45405Z" fill="#087BA8"/>
<path d="M21.1491 67.497C27.953 67.497 33.4682 61.982 33.4682 55.1779C33.4682 48.3739 27.9532 42.8589 21.1491 42.8589C14.3451 42.8589 8.83008 48.374 8.83008 55.1779C8.83747 61.9786 14.3485 67.4896 21.1491 67.497ZM21.1491 44.9222C26.8132 44.9222 31.4048 49.5137 31.4048 55.1779C31.4048 60.8422 26.8134 65.4336 21.1491 65.4336C15.4849 65.4336 10.8934 60.842 10.8934 55.1779C10.8994 49.5165 15.4876 44.9284 21.1491 44.9222Z" fill="#087BA8"/>
<path d="M19.0642 58.8529C19.4652 59.2444 20.1047 59.2444 20.5057 58.8529L26.521 52.9799C26.7877 52.7233 26.8959 52.3432 26.8051 51.9845C26.7145 51.6251 26.4383 51.3424 26.0817 51.2431C25.7251 51.1444 25.3428 51.2437 25.0796 51.5037L19.7849 56.6728L17.1667 54.1164C16.7583 53.7229 16.1082 53.733 15.7118 54.1386C15.3155 54.5449 15.3215 55.1945 15.7252 55.5934L19.0642 58.8529Z" fill="#087BA8"/>
</g>
<defs>
<clipPath id="clip0_697_14067">
<rect width="76" height="76" fill="white"/>
</clipPath>
</defs>
</svg>

<svg width="76" height="76" viewBox="0 0 76 76" fill="none" xmlns="http://www.w3.org/2000/svg"><g clip-path="url(#clip0_697_14067)"><path d="M23.32 23.07h-4.798a2.56 2.56 0 00-2.56 2.558l.013 13.976 1.536-.22.767-3.996 2.495-.542-.012-9.218a2.557 2.557 0 012.56-2.558z" fill="#D4E1F4"/><path d="M61.096 20.275h.002a2.403 2.403 0 002.407-2.392 2.37 2.37 0 00-.707-1.697 2.397 2.397 0 00-1.699-.7h-.001a2.404 2.404 0 00-2.407 2.393 2.37 2.37 0 00.706 1.696 2.396 2.396 0 001.7.7zm.002-3.007a.627.627 0 01.579.38.603.603 0 01-.14.669.62.62 0 01-.44.176.628.628 0 01-.578-.38.603.603 0 01.14-.668.62.62 0 01.439-.177zm.999 6.222a3.039 3.039 0 00-3.044 3.024 2.996 2.996 0 00.893 2.144 3.034 3.034 0 002.15.885h.002a3.034 3.034 0 002.149-.883 2.999 2.999 0 00.896-2.142A3.04 3.04 0 0062.1 23.49h-.003zm1.264 3.027a1.227 1.227 0 01-.368.878 1.265 1.265 0 01-.896.367h-.001a1.263 1.263 0 01-1.168-.77 1.229 1.229 0 01.28-1.36 1.25 1.25 0 01.889-.36 1.256 1.256 0 011.264 1.245z" fill="#087BA8"/><path d="M67.696 0H55.792a3.271 3.271 0 00-3.267 3.264 3.257 3.257 0 002.483 3.167v22.208l1.92-.002V13.4h4.383a.96.96 0 100-1.918h-4.383V6.53h9.63v4.953h-1.215a.96.96 0 100 1.918h1.216v15.24l1.92-.003V6.43a3.27 3.27 0 002.484-3.165A3.267 3.267 0 0067.696 0zm0 4.61H55.792a1.347 1.347 0 110-2.692h11.904a1.35 1.35 0 011.347 1.346 1.347 1.347 0 01-1.347 1.346z" fill="#087BA8"/><path d="M46.044 16.961c-3.33 0-5.615 1.43-6.98 4.373a9.461 9.461 0 01-2.358 3.146 9.832 9.832 0 01-6.473 2.439H29.14v-1.292a3.52 3.52 0 00-3.52-3.517h-7.097a3.524 3.524 0 00-3.52 3.517v14.79h1.92v-14.79a1.6 1.6 0 011.6-1.598h7.098a1.602 1.602 0 011.6 1.598v15.288a.959.959 0 001.919 0V28.837h1.094a11.75 11.75 0 007.739-2.916 11.369 11.369 0 002.833-3.78c.705-1.518 1.937-3.26 5.239-3.26h9.1v-1.919h-9.1zm29.659 23.893a5.283 5.283 0 00-2.137-4.245 4.892 4.892 0 00-2.758-8.93H55.613a2.286 2.286 0 01-2.274-2.038.958.958 0 00-1.706-.5.959.959 0 00-.202.71 4.198 4.198 0 004.182 3.746h15.195a2.976 2.976 0 012.976 2.973 2.973 2.973 0 01-2.976 2.973l-6.194.02a.96.96 0 100 1.918h5.793a3.377 3.377 0 013.376 3.374 3.373 3.373 0 01-3.376 3.373h-5.792a.96.96 0 000 1.919h5.921a3.25 3.25 0 013.066 1.986 3.244 3.244 0 01-3.066 4.502h-8.538a.96.96 0 100 1.919h6.62a3.228 3.228 0 013.228 3.225 3.224 3.224 0 01-3.228 3.225H56.364c-1.935 0-4.174-.028-6.272-.362-2.179-.347-4.003-.99-5.578-1.966-3.27-2.022-3.891-1.849-3.891-1.849l-.163 1.912c.563 0 .029-.296 3.041 1.567 1.796 1.114 3.853 1.844 6.288 2.231 2.237.356 4.566.386 6.574.386h12.255a5.155 5.155 0 005.148-5.144 5.097 5.097 0 00-1.424-3.548 5.164 5.164 0 003.32-4.19 5.158 5.158 0 00-2.173-4.882c.236-.17.458-.357.663-.562a5.256 5.256 0 001.551-3.743z" fill="#00415D"/><path d="M41.76 25.596a.96.96 0 00-1.352.115 13.307 13.307 0 01-6.04 4.066.959.959 0 10.596 1.823 15.226 15.226 0 006.91-4.652.957.957 0 00-.114-1.352zm.974-.636a.96.96 0 00.844-.502c.148-.273.29-.555.42-.836a.96.96 0 10-1.74-.807c-.114.245-.238.49-.367.727a.958.958 0 00.843 1.418z" fill="#00415D"/><path d="M1.3 59.104l3.553.344a16.63 16.63 0 001.78 4.241l-2.27 2.737a1.03 1.03 0 00.064 1.387l4.088 4.09c.376.376.977.404 1.387.065l2.743-2.271a16.994 16.994 0 004.236 1.788l.343 3.565c.052.529.496.933 1.026.933h5.798c.531 0 .976-.404 1.027-.933l.344-3.564A16.636 16.636 0 0029.66 69.7l2.738 2.267c.41.34 1.01.311 1.386-.066l4.09-4.089c.376-.377.405-.978.065-1.387l-2.272-2.743a16.96 16.96 0 001.79-4.237l3.478-.343a1 1 0 00.894-1.026v-5.798a1 1 0 00-.896-1.027l-3.546-.344a16.604 16.604 0 00-1.776-4.242l2.271-2.736a1.031 1.031 0 00-.058-1.383l-4.036-4.09c-.376-.38-.98-.41-1.392-.07l-2.743 2.272a16.964 16.964 0 00-4.235-1.789l-.344-3.565a1.032 1.032 0 00-1.026-.932H18.25a1.03 1.03 0 00-1.027.933l-.344 3.564a16.638 16.638 0 00-4.241 1.785l-2.737-2.267a1.031 1.031 0 00-1.388.066l-4.089 4.089a1.031 1.031 0 00-.065 1.387l2.272 2.743a16.972 16.972 0 00-1.79 4.236l-3.542.344c-.524.053-.92.5-.909 1.026v5.798c-.01.526.386.973.91 1.027zm1.154-5.888l3.34-.324c.444-.044.808-.371.898-.808a14.913 14.913 0 012.078-4.94 1.031 1.031 0 00-.075-1.216l-2.146-2.59 2.76-2.76 2.59 2.144c.35.29.851.316 1.23.064a14.47 14.47 0 014.925-2.076c.439-.096.766-.463.809-.91l.324-3.364h3.924l.324 3.364c.043.446.37.814.809.909a14.936 14.936 0 014.939 2.084c.378.245.87.215 1.217-.072l2.584-2.141 2.719 2.753-2.149 2.594c-.29.351-.316.851-.064 1.23a14.463 14.463 0 012.076 4.926.99.99 0 00.873.808l3.327.325v3.925l-3.276.324a1.01 1.01 0 00-.89.808 14.918 14.918 0 01-2.075 4.939 1.03 1.03 0 00.077 1.217l2.146 2.59-2.76 2.76-2.589-2.144a1.032 1.032 0 00-1.23-.064 14.465 14.465 0 01-4.925 2.076 1.032 1.032 0 00-.809.91l-.324 3.363h-3.924l-.324-3.364a1.032 1.032 0 00-.808-.909 14.926 14.926 0 01-4.938-2.084 1.032 1.032 0 00-1.218.072l-2.59 2.144-2.761-2.76 2.145-2.59c.29-.351.316-.851.063-1.23a14.465 14.465 0 01-2.076-4.926 1.005 1.005 0 00-.886-.808l-3.34-.325v-3.924z" fill="#087BA8"/><path d="M21.15 67.497c6.803 0 12.318-5.515 12.318-12.32 0-6.803-5.515-12.318-12.319-12.318-6.804 0-12.319 5.515-12.319 12.319.007 6.8 5.518 12.312 12.32 12.319zm0-22.575c5.663 0 10.255 4.592 10.255 10.256 0 5.664-4.592 10.256-10.256 10.256-5.664 0-10.256-4.592-10.256-10.256.006-5.661 4.595-10.25 10.256-10.256z" fill="#087BA8"/><path d="M19.064 58.853c.401.391 1.04.391 1.442 0l6.015-5.873a1.03 1.03 0 10-1.441-1.476l-5.295 5.169-2.618-2.557a1.033 1.033 0 00-1.442 1.477l3.34 3.26z" fill="#087BA8"/></g><defs><clipPath id="clip0_697_14067"><path fill="#fff" d="M0 0h76v76H0z"/></clipPath></defs></svg>
